assets/img/braze_icons/home-05.svg

<svg fill="none" height="24" viewBox="0 0 24 24" width="24" xmlns="http://www.w3.org/2000/svg"><path clip-rule="evenodd" d="m11.4773 1.33636c.3423-.09268.7031-.09268 1.0454 0 .3973.10759.7319.37024.9989.57987 2.3034 1.80839 4.6211 3.59848 6.9346 5.39388.3767.29229.7085.54979.9557.8841.217.29338.3787.62389.477.97529.1121.40042.1117.82043.1112 1.2972-.0026 2.4573-.0001 4.9146-.0001 7.3719 0 .5271 0 .9818-.0306 1.3564-.0323.3954-.1036.7886-.2964 1.167-.2876.5644-.7466 1.0234-1.311 1.311-.3784.1928-.7716.2641-1.167.2964-.8015.0655-1.6145.0302-2.4182.0306-.1191 0-.2613.0001-.3866-.0101-.1453-.0119-.3533-.0424-.5712-.1534-.2822-.1438-.5117-.3733-.6555-.6555-.1111-.218-.1415-.426-.1534-.5712-.0102-.1253-.0102-.2676-.0101-.3867l.0079-5.5962c.0008-.5608.0011-.8412-.1077-1.0554-.0958-.1884-.2488-.3417-.4371-.4377-.2141-.1092-.4945-.1092-1.0552-.1092h-2.7999c-.5593 0-.83899 0-1.05275.1088-.18803.0957-.34097.2484-.43694.4363-.10911.2136-.10951.4933-.11031 1.0526l-.00801 5.6008c.00005.1191.0001.2614-.01014.3867-.01186.1452-.0423.3532-.15335.5712-.14381.2822-.37328.5117-.65553.6555-.21794.111-.42594.1415-.57115.1534-.12532.0102-.26757.0101-.38668.0101-.80369-.0004-1.61666.0349-2.41818-.0306-.39535-.0323-.78856-.1036-1.16694-.2964-.56449-.2876-1.02343-.7466-1.31105-1.311-.1928-.3784-.26411-.7716-.29641-1.167-.03061-.3746-.03059-.8293-.03057-1.3565 0-2.4573.00258-4.9146-.00007-7.3718-.00052-.47677-.00097-.89678.11111-1.2972.09836-.3514.26001-.68191.477-.97529.24726-.3343.57907-.59181.9557-.88409 2.31343-1.79533 4.63136-3.58554 6.93467-5.39389.267-.20963.6015-.47228.9989-.57987z" fill="#801ed7" fill-rule="evenodd"/></svg>

<svg width="24" height="24" viewBox="0 0 24 24" fill="none" xmlns="http://www.w3.org/2000/svg">
<path fill-rule="evenodd" clip-rule="evenodd" d="M11.4773 1.33636C11.8196 1.24368 12.1804 1.24368 12.5227 1.33636C12.92 1.44395 13.2546 1.7066 13.5216 1.91623C15.825 3.72462 18.1427 5.51471 20.4562 7.31011C20.8329 7.6024 21.1647 7.8599 21.4119 8.19421C21.6289 8.48759 21.7906 8.8181 21.8889 9.1695C22.001 9.56992 22.0006 9.98993 22.0001 10.4667C21.9975 12.924 22 15.3813 22 17.8386C22 18.3657 22 18.8204 21.9694 19.195C21.9371 19.5904 21.8658 19.9836 21.673 20.362C21.3854 20.9264 20.9264 21.3854 20.362 21.673C19.9836 21.8658 19.5904 21.9371 19.195 21.9694C18.3935 22.0349 17.5805 21.9996 16.7768 22C16.6577 22 16.5155 22.0001 16.3902 21.9899C16.2449 21.978 16.0369 21.9475 15.819 21.8365C15.5368 21.6927 15.3073 21.4632 15.1635 21.181C15.0524 20.963 15.022 20.755 15.0101 20.6098C14.9999 20.4845 14.9999 20.3422 15 20.2231L15.0079 14.6269C15.0087 14.0661 15.009 13.7857 14.9002 13.5715C14.8044 13.3831 14.6514 13.2298 14.4631 13.1338C14.249 13.0246 13.9686 13.0246 13.4079 13.0246H10.608C10.0487 13.0246 9.76901 13.0246 9.55525 13.1334C9.36722 13.2291 9.21428 13.3818 9.11831 13.5697C9.0092 13.7833 9.0088 14.063 9.008 14.6223L8.99999 20.2231C9.00004 20.3422 9.00009 20.4845 8.98985 20.6098C8.97799 20.755 8.94755 20.963 8.8365 21.181C8.69269 21.4632 8.46322 21.6927 8.18097 21.8365C7.96303 21.9475 7.75503 21.978 7.60982 21.9899C7.4845 22.0001 7.34225 22 7.22314 22C6.41945 21.9996 5.60648 22.0349 4.80496 21.9694C4.40961 21.9371 4.0164 21.8658 3.63802 21.673C3.07353 21.3854 2.61459 20.9264 2.32697 20.362C2.13417 19.9836 2.06286 19.5904 2.03056 19.195C1.99995 18.8204 1.99997 18.3657 1.99999 17.8385C1.99999 15.3812 2.00257 12.9239 1.99992 10.4667C1.9994 9.98993 1.99895 9.56992 2.11103 9.1695C2.20939 8.8181 2.37104 8.48759 2.58803 8.19421C2.83529 7.85991 3.1671 7.6024 3.54373 7.31012C5.85716 5.51479 8.17509 3.72458 10.4784 1.91623C10.7454 1.7066 11.0799 1.44395 11.4773 1.33636Z" fill="#801ED7"/>
</svg>
